src/assets/icons/letters,fancy,sans-s.svg

<svg width="48" height="48" viewBox="0 0 48 48" fill="none" xmlns="http://www.w3.org/2000/svg">
<g clip-path="url(#clip0_86:317)">
<path d="M28.2042 17.2756H34.0991C34.0139 12.0909 29.7525 8.51136 23.2752 8.51136C16.8974 8.51136 12.2241 12.0341 12.2525 17.3182C12.2383 21.608 15.2638 24.0653 20.1786 25.2443L23.3462 26.0398C26.5138 26.8068 28.2752 27.7159 28.2894 29.6761C28.2752 31.8068 26.2582 33.2557 23.1332 33.2557C19.9371 33.2557 17.636 31.7784 17.4371 28.8665H11.4854C11.6417 35.1591 16.1445 38.4119 23.2042 38.4119C30.3065 38.4119 34.4826 35.017 34.4968 29.6903C34.4826 24.8466 30.832 22.2756 25.7752 21.1392L23.1616 20.5142C20.6332 19.9318 18.5167 18.9943 18.5593 16.9062C18.5593 15.0312 20.2212 13.6534 23.2326 13.6534C26.1729 13.6534 27.9769 14.9886 28.2042 17.2756Z" fill="black"/>
</g>
<defs>
<clipPath id="clip0_86:317">
<rect width="48" height="48" fill="white"/>
</clipPath>
</defs>
</svg>

<svg xmlns="http://www.w3.org/2000/svg" width="48" height="48" fill="none" viewBox="0 0 48 48">
  <g clip-path="url(#clip0_86:317)">
    <path fill="#000" d="M28.204 17.276H34.1c-.085-5.185-4.346-8.765-10.824-8.765-6.378 0-11.05 3.523-11.022 8.807-.015 4.29 3.01 6.747 7.926 7.926l3.167.796c3.168.767 4.93 1.676 4.943 3.636-.014 2.13-2.03 3.58-5.156 3.58-3.196 0-5.497-1.478-5.696-4.39h-5.952c.157 6.293 4.66 9.546 11.72 9.546 7.102 0 11.278-3.395 11.292-8.722-.014-4.843-3.665-7.414-8.722-8.55l-2.613-.626c-2.529-.582-4.645-1.52-4.603-3.608 0-1.875 1.662-3.253 4.674-3.253 2.94 0 4.744 1.336 4.971 3.623z"/>
  </g>
  <defs>
    <clipPath id="clip0_86:317">
      <path fill="#fff" d="M0 0h48v48H0z"/>
    </clipPath>
  </defs>
</svg>
